X: 434
T: A Truagh Clog Dance
R: hornpipe
M: 4/4
K: Amajor
|:A>B|c>ed>c B>dc>B|(3ABA A>B c>AF>A|E>AA>B c>BA>c|B>AB>c (3ddB A>B|
c>ed>c (3Bcd c>B|A>GA>B (3cBA F>A|E>AA>f e>cd>B|(3cBA c>B A2:|
|:G>A|B>cB>A G>EG>B|c>d (3ccB A>Bd>e|f>ed>c B>e^d>f|(3efe e>f e>cd>B|
c>d (3ccB A>ce>c|B>cB>A G>AB>G|A>ag>f e>dc>B|A<ae>c (3AAG:|

